lib/flags/gu-guam.svg

<svg xmlns="http://www.w3.org/2000/svg" fill="none" aria-hidden="true" viewBox="0 0 42 30"><g id="Country=GU - Guam, Size=sm (36x24)" filter="url(#filter0_dd_91_27802)"><g clip-path="url(#clip0_91_27802)"><g id="flag"><mask id="mask0_91_27802" width="36" height="24" x="3" y="2" maskUnits="userSpaceOnUse" style="mask-type:alpha"><rect id="mask" width="36" height="24" x="3" y="2" fill="white"/></mask><g mask="url(#mask0_91_27802)"><g id="contents"><path id="background" fill="#C51918" fill-rule="evenodd" d="M3 2H39V26H3V2Z" clip-rule="evenodd"/><g id="top"><path fill="#4564F9" fill-rule="evenodd" d="M7.5 6H34.5V22H7.5V6Z" clip-rule="evenodd"/><path stroke="#CBDAFF" stroke-opacity="0.1" stroke-width="2" d="M8.5 7H33.5V21H8.5V7Z"/></g><mask id="mask1_91_27802" width="28" height="16" x="7" y="6" maskUnits="userSpaceOnUse" style="mask-type:alpha"><g id="top_2"><path fill="white" fill-rule="evenodd" d="M7.5 6H34.5V22H7.5V6Z" clip-rule="evenodd"/><path stroke="white" stroke-width="2" d="M8.5 7H33.5V21H8.5V7Z"/></g></mask><g mask="url(#mask1_91_27802)"><g id="mark"><path id="base" stroke="#C1C9F1" stroke-opacity="0.1182" stroke-width="2.9" d="M21.5625 7L22.112 5.65813L21.5497 5.4279L20.9912 5.66727L21.5625 7ZM21.5625 7C22.112 5.65813 22.1124 5.6583 22.1128 5.65848L22.1138 5.65888L22.1162 5.65986L22.1226 5.66254L22.1423 5.67075C22.1583 5.67747 22.1801 5.68673 22.2072 5.69848C22.2616 5.72197 22.3377 5.7555 22.4323 5.79888C22.6215 5.88554 22.8862 6.01207 23.2014 6.17698C23.8283 6.50492 24.6731 6.99395 25.5266 7.63446C27.1501 8.85283 29.2 10.9186 29.2 13.753C29.2 16.5553 27.1863 18.7428 25.5825 20.0744C24.7377 20.7758 23.9005 21.3274 23.278 21.7028C22.9652 21.8914 22.7027 22.0378 22.5154 22.1386C22.4216 22.189 22.3464 22.2282 22.2928 22.2556C22.2661 22.2693 22.2447 22.2801 22.229 22.2879L22.2099 22.2974L22.2037 22.3005L22.2015 22.3016L22.2006 22.3021C22.2002 22.3023 22.1998 22.3024 21.5625 21M21.5625 7C20.9912 5.66727 20.9909 5.66744 20.9904 5.66762L20.9895 5.66802L20.9872 5.66902L20.9808 5.67176L20.9615 5.6802C20.9457 5.68714 20.9241 5.69671 20.8972 5.70886C20.8433 5.73317 20.7676 5.76788 20.6735 5.81272C20.4853 5.90229 20.2217 6.03284 19.9076 6.20214C19.283 6.53886 18.4415 7.03818 17.5914 7.68428C15.9842 8.90574 13.925 10.9726 13.925 13.753C13.925 16.5007 15.9471 18.69 17.5362 20.0246C18.3779 20.7316 19.2123 21.2933 19.8326 21.6773C20.1443 21.8702 20.4058 22.0206 20.5922 22.1242C20.6855 22.176 20.7603 22.2163 20.8134 22.2445C20.84 22.2586 20.8612 22.2697 20.8766 22.2778L20.8954 22.2875L20.9015 22.2906L20.9037 22.2917L20.9046 22.2921C20.9049 22.2923 20.9053 22.2925 21.5625 21M21.5625 21L22.1998 22.3024L21.5501 22.6204L20.9053 22.2925L21.5625 21Z"/><g id="base_2"><path fill="#CCE0E5" d="M21.4502 8.03662L22.0753 6.72829L21.4356 6.42265L20.8016 6.73979L21.4502 8.03662ZM21.4502 8.03662C22.0753 6.72829 22.0757 6.7285 22.0762 6.72871L22.0772 6.72918L22.0795 6.73028L22.0853 6.73309L22.1018 6.74114C22.1149 6.74759 22.1323 6.7562 22.1537 6.76697C22.1963 6.78849 22.2549 6.81865 22.3272 6.85728C22.4715 6.93445 22.6715 7.04606 22.9088 7.19088C23.3803 7.47867 24.0145 7.90714 24.6554 8.46839C25.8916 9.55082 27.4002 11.349 27.4002 13.7675C27.4002 16.1585 25.9196 18.054 24.7091 19.2267C24.0784 19.8378 23.4533 20.3185 22.9877 20.646C22.7536 20.8108 22.5564 20.9391 22.4145 21.0282C22.3435 21.0728 22.286 21.1077 22.2445 21.1326C22.2236 21.145 22.2068 21.1549 22.1942 21.1623L22.1784 21.1715L22.1729 21.1746L22.1708 21.1758L22.1699 21.1763C22.1695 21.1766 22.1692 21.1768 21.4502 19.9176M21.4502 8.03662C20.8016 6.73979 20.8011 6.74 20.8007 6.74021L20.7998 6.74068L20.7976 6.74178L20.792 6.74463L20.7758 6.75286C20.7629 6.75947 20.7458 6.76833 20.7247 6.77942C20.6825 6.80159 20.6245 6.83271 20.5528 6.87252C20.4096 6.95206 20.2109 7.06694 19.975 7.21533C19.5062 7.51022 18.8755 7.94692 18.2381 8.51217C17.017 9.5951 15.5002 11.3936 15.5002 13.7675C15.5002 16.1132 16.988 18.0098 18.1853 19.1832C18.8129 19.7982 19.435 20.287 19.8981 20.6215C20.131 20.7897 20.327 20.9212 20.4678 21.0126C20.5383 21.0583 20.5953 21.0941 20.6364 21.1196C20.6569 21.1323 20.6736 21.1425 20.686 21.15L20.7014 21.1593L20.7067 21.1624L20.7087 21.1636L20.7095 21.1641C20.7099 21.1644 20.7103 21.1646 21.4502 19.9176M21.4502 19.9176L22.1692 21.1768L21.4362 21.5953L20.7103 21.1646L21.4502 19.9176Z"/><path stroke="#C1C9F1" stroke-opacity="0.748217" stroke-width="2.9" d="M21.4502 8.03662L22.0753 6.72829L21.4356 6.42265L20.8016 6.73979L21.4502 8.03662ZM21.4502 8.03662C22.0753 6.72829 22.0757 6.7285 22.0762 6.72871L22.0772 6.72918L22.0795 6.73028L22.0853 6.73309L22.1018 6.74114C22.1149 6.74759 22.1323 6.7562 22.1537 6.76697C22.1963 6.78849 22.2549 6.81865 22.3272 6.85728C22.4715 6.93445 22.6715 7.04606 22.9088 7.19088C23.3803 7.47867 24.0145 7.90714 24.6554 8.46839C25.8916 9.55082 27.4002 11.349 27.4002 13.7675C27.4002 16.1585 25.9196 18.054 24.7091 19.2267C24.0784 19.8378 23.4533 20.3185 22.9877 20.646C22.7536 20.8108 22.5564 20.9391 22.4145 21.0282C22.3435 21.0728 22.286 21.1077 22.2445 21.1326C22.2236 21.145 22.2068 21.1549 22.1942 21.1623L22.1784 21.1715L22.1729 21.1746L22.1708 21.1758L22.1699 21.1763C22.1695 21.1766 22.1692 21.1768 21.4502 19.9176M21.4502 8.03662C20.8016 6.73979 20.8011 6.74 20.8007 6.74021L20.7998 6.74068L20.7976 6.74178L20.792 6.74463L20.7758 6.75286C20.7629 6.75947 20.7458 6.76833 20.7247 6.77942C20.6825 6.80159 20.6245 6.83271 20.5528 6.87252C20.4096 6.95206 20.2109 7.06694 19.975 7.21533C19.5062 7.51022 18.8755 7.94692 18.2381 8.51217C17.017 9.5951 15.5002 11.3936 15.5002 13.7675C15.5002 16.1132 16.988 18.0098 18.1853 19.1832C18.8129 19.7982 19.435 20.287 19.8981 20.6215C20.131 20.7897 20.327 20.9212 20.4678 21.0126C20.5383 21.0583 20.5953 21.0941 20.6364 21.1196C20.6569 21.1323 20.6736 21.1425 20.686 21.15L20.7014 21.1593L20.7067 21.1624L20.7087 21.1636L20.7095 21.1641C20.7099 21.1644 20.7103 21.1646 21.4502 19.9176M21.4502 19.9176L22.1692 21.1768L21.4362 21.5953L20.7103 21.1646L21.4502 19.9176Z"/><path stroke="#C51918" stroke-width="2.9" d="M21.4502 8.03662L22.0753 6.72829L21.4356 6.42265L20.8016 6.73979L21.4502 8.03662ZM21.4502 8.03662C22.0753 6.72829 22.0757 6.7285 22.0762 6.72871L22.0772 6.72918L22.0795 6.73028L22.0853 6.73309L22.1018 6.74114C22.1149 6.74759 22.1323 6.7562 22.1537 6.76697C22.1963 6.78849 22.2549 6.81865 22.3272 6.85728C22.4715 6.93445 22.6715 7.04606 22.9088 7.19088C23.3803 7.47867 24.0145 7.90714 24.6554 8.46839C25.8916 9.55082 27.4002 11.349 27.4002 13.7675C27.4002 16.1585 25.9196 18.054 24.7091 19.2267C24.0784 19.8378 23.4533 20.3185 22.9877 20.646C22.7536 20.8108 22.5564 20.9391 22.4145 21.0282C22.3435 21.0728 22.286 21.1077 22.2445 21.1326C22.2236 21.145 22.2068 21.1549 22.1942 21.1623L22.1784 21.1715L22.1729 21.1746L22.1708 21.1758L22.1699 21.1763C22.1695 21.1766 22.1692 21.1768 21.4502 19.9176M21.4502 8.03662C20.8016 6.73979 20.8011 6.74 20.8007 6.74021L20.7998 6.74068L20.7976 6.74178L20.792 6.74463L20.7758 6.75286C20.7629 6.75947 20.7458 6.76833 20.7247 6.77942C20.6825 6.80159 20.6245 6.83271 20.5528 6.87252C20.4096 6.95206 20.2109 7.06694 19.975 7.21533C19.5062 7.51022 18.8755 7.94692 18.2381 8.51217C17.017 9.5951 15.5002 11.3936 15.5002 13.7675C15.5002 16.1132 16.988 18.0098 18.1853 19.1832C18.8129 19.7982 19.435 20.287 19.8981 20.6215C20.131 20.7897 20.327 20.9212 20.4678 21.0126C20.5383 21.0583 20.5953 21.0941 20.6364 21.1196C20.6569 21.1323 20.6736 21.1425 20.686 21.15L20.7014 21.1593L20.7067 21.1624L20.7087 21.1636L20.7095 21.1641C20.7099 21.1644 20.7103 21.1646 21.4502 19.9176M21.4502 19.9176L22.1692 21.1768L21.4362 21.5953L20.7103 21.1646L21.4502 19.9176Z"/></g><mask id="mask2_91_27802" width="10" height="12" x="16" y="8" maskUnits="userSpaceOnUse" style="mask-type:alpha"><g id="base_3"><path fill="white" d="M22.6913 17.1439C22.257 17.5646 21.8184 17.9133 21.4618 18.1722C21.1012 17.9044 20.656 17.544 20.2151 17.112C19.1624 16.0802 18.4002 14.9019 18.4002 13.7675C18.4002 12.6613 19.1334 11.5943 20.1623 10.6819C20.6257 10.2709 21.0951 9.94023 21.4625 9.70594C21.8259 9.93156 22.2884 10.2504 22.745 10.6501C23.7588 11.5379 24.5002 12.6052 24.5002 13.7675C24.5002 14.9572 23.7308 16.1367 22.6913 17.1439Z"/><path stroke="white" stroke-width="2.9" d="M22.6913 17.1439C22.257 17.5646 21.8184 17.9133 21.4618 18.1722C21.1012 17.9044 20.656 17.544 20.2151 17.112C19.1624 16.0802 18.4002 14.9019 18.4002 13.7675C18.4002 12.6613 19.1334 11.5943 20.1623 10.6819C20.6257 10.2709 21.0951 9.94023 21.4625 9.70594C21.8259 9.93156 22.2884 10.2504 22.745 10.6501C23.7588 11.5379 24.5002 12.6052 24.5002 13.7675C24.5002 14.9572 23.7308 16.1367 22.6913 17.1439Z"/></g></mask><g mask="url(#mask2_91_27802)"><rect id="Rectangle 5" width="8.4" height="1.5" x="17.5498" y="16" fill="#91CBCB"/><path id="sand" fill="#FDF9A1" fill-rule="evenodd" d="M18.3022 17.1981C18.3022 17.1981 24.2581 17.2 24.8054 17.0173C25.3528 16.8346 23.7778 20.5249 21.7653 20.5249C19.7529 20.5249 18.3022 17.1981 18.3022 17.1981Z" clip-rule="evenodd"/><path id="Path 72" fill="#A68861" d="M23.9179 16.755L22.848 17.4868C21.1617 15.5389 20.4544 13.5238 20.7563 11.4673L22.095 11.6226C21.8421 13.3451 22.4396 15.0473 23.9179 16.755Z"/><path id="Star 11" fill="#239E46" fill-rule="evenodd" d="M21.4431 11.6365L20.4055 12.7172C20.3698 12.7545 20.3079 12.7197 20.3211 12.6698L20.6759 11.3302H19.0768C19.0215 11.3302 19.0071 11.2537 19.0587 11.2336L20.421 10.7027L19.4516 9.56658C19.4185 9.52781 19.4578 9.4702 19.506 9.48688L21.0407 10.0187L21.3948 8.75218C21.4085 8.70343 21.4776 8.70348 21.4911 8.75224L21.8434 10.0187L23.3651 9.49206C23.4143 9.47503 23.4535 9.53513 23.4181 9.5733L22.3711 10.7027L23.8122 11.2333C23.8646 11.2525 23.8507 11.3302 23.7949 11.3302H22.3711L22.5894 12.699C22.5971 12.7474 22.5379 12.7768 22.504 12.7415L21.4431 11.6365Z" clip-rule="evenodd"/><path id="Rectangle 27" fill="#239E46" fill-rule="evenodd" d="M20.5498 15H25.9498V16.05H20.5498V15Z" clip-rule="evenodd"/><path id="GUAM" fill="#C51918" fill-rule="evenodd" d="M19.7311 14.3927H19.7257C19.7101 14.4441 19.672 14.4869 19.6114 14.521C19.5508 14.5551 19.4725 14.5722 19.3765 14.5722C19.2997 14.5722 19.2292 14.5599 19.165 14.5352C19.1008 14.5105 19.0459 14.4743 19.0003 14.4265C18.9547 14.3787 18.919 14.3194 18.8932 14.2485C18.8674 14.1777 18.8545 14.096 18.8545 14.0036C18.8545 13.9123 18.8671 13.8312 18.8923 13.7603C18.9175 13.6894 18.9535 13.6301 19.0003 13.5823C19.0471 13.5345 19.1035 13.4981 19.1695 13.4729C19.2355 13.4477 19.3087 13.4351 19.3891 13.4351C19.5019 13.4351 19.5961 13.4571 19.6717 13.5012C19.7473 13.5453 19.8055 13.6036 19.8463 13.676L19.7221 13.7422C19.6933 13.6834 19.6504 13.6372 19.5934 13.6036C19.5364 13.57 19.4683 13.5532 19.3891 13.5532C19.3339 13.5532 19.2835 13.5618 19.2379 13.5792C19.1923 13.5965 19.153 13.6209 19.12 13.6524C19.087 13.6839 19.0615 13.7217 19.0435 13.7658C19.0255 13.8099 19.0165 13.8593 19.0165 13.9139V14.0918C19.0165 14.1464 19.0255 14.196 19.0435 14.2407C19.0615 14.2853 19.087 14.3234 19.12 14.3549C19.153 14.3864 19.1935 14.4108 19.2415 14.4281C19.2895 14.4454 19.3435 14.4541 19.4035 14.4541C19.4467 14.4541 19.4878 14.4491 19.5268 14.4391C19.5658 14.4291 19.6 14.4142 19.6294 14.3942C19.6588 14.3743 19.6819 14.3493 19.6987 14.3194C19.7155 14.2895 19.7239 14.2541 19.7239 14.2131V14.1044H19.4467V13.9879H19.8715V14.5533H19.7311V14.3927ZM20.6707 13.454V14.1344C20.6707 14.2394 20.6929 14.3189 20.7373 14.373C20.7817 14.4271 20.8597 14.4541 20.9713 14.4541C21.0829 14.4541 21.1609 14.4271 21.2053 14.373C21.2497 14.3189 21.2719 14.2394 21.2719 14.1344V13.454H21.4231V14.1029C21.4231 14.1827 21.415 14.252 21.3988 14.3108C21.3826 14.3696 21.3565 14.4184 21.3205 14.4572C21.2845 14.4961 21.2374 14.525 21.1792 14.5439C21.121 14.5628 21.0499 14.5722 20.9659 14.5722C20.8819 14.5722 20.8114 14.5628 20.7544 14.5439C20.6974 14.525 20.6515 14.4961 20.6167 14.4572C20.5819 14.4184 20.557 14.3696 20.542 14.3108C20.527 14.252 20.5195 14.1827 20.5195 14.1029V13.454H20.6707ZM22.8721 14.5533L22.7461 14.2289H22.2385L22.1125 14.5533H21.9595L22.3987 13.454H22.5913L23.0305 14.5533H22.8721ZM22.4959 13.5768H22.4869L22.2745 14.1123H22.7083L22.4959 13.5768ZM24.5785 13.6272H24.5695L24.4633 13.8115L24.1628 14.2903L23.8621 13.8115L23.7559 13.6272H23.7469V14.5533H23.5993V13.454H23.8009L24.1609 14.0462H24.17L24.5318 13.454H24.7262V14.5533H24.5785V13.6272Z" clip-rule="evenodd"/></g></g></g></g></g></g></g></g><defs><filter id="filter0_dd_91_27802" width="42" height="30" x="0" y="0" color-interpolation-filters="sRGB" filterUnits="userSpaceOnUse"><feFlood flood-opacity="0" result="BackgroundImageFix"/><feColorMatrix in="SourceAlpha" result="hardAlpha" values="0 0 0 0 0 0 0 0 0 0 0 0 0 0 0 0 0 0 127 0"/><feOffset dy="1"/><feGaussianBlur stdDeviation="1"/><feColorMatrix values="0 0 0 0 0.0627451 0 0 0 0 0.0941176 0 0 0 0 0.156863 0 0 0 0.06 0"/><feBlend in2="BackgroundImageFix" result="effect1_dropShadow_91_27802"/><feColorMatrix in="SourceAlpha" result="hardAlpha" values="0 0 0 0 0 0 0 0 0 0 0 0 0 0 0 0 0 0 127 0"/><feOffset dy="1"/><feGaussianBlur stdDeviation="1.5"/><feColorMatrix values="0 0 0 0 0.0627451 0 0 0 0 0.0941176 0 0 0 0 0.156863 0 0 0 0.1 0"/><feBlend in2="effect1_dropShadow_91_27802" result="effect2_dropShadow_91_27802"/><feBlend in="SourceGraphic" in2="effect2_dropShadow_91_27802" result="shape"/></filter><clipPath id="clip0_91_27802"><rect width="36" height="24" x="3" y="2" fill="white" rx="2"/></clipPath></defs></svg>

<svg xmlns="http://www.w3.org/2000/svg" fill="none" aria-hidden="true" viewBox="0 0 42 30"><g filter="url(#a)"><g clip-path="url(#b)"><mask id="c" width="36" height="24" x="3" y="2" maskUnits="userSpaceOnUse" style="mask-type:alpha"><path fill="#fff" d="M3 2h36v24H3z"/></mask><g mask="url(#c)"><path fill="#C51918" fill-rule="evenodd" d="M3 2h36v24H3V2Z" clip-rule="evenodd"/><path fill="#4564F9" fill-rule="evenodd" d="M7.5 6h27v16h-27V6Z" clip-rule="evenodd"/><path stroke="#CBDAFF" stroke-opacity=".1" stroke-width="2" d="M8.5 7h25v14h-25V7Z"/><mask id="d" width="28" height="16" x="7" y="6" maskUnits="userSpaceOnUse" style="mask-type:alpha"><path fill="#fff" fill-rule="evenodd" d="M7.5 6h27v16h-27V6Z" clip-rule="evenodd"/><path stroke="#fff" stroke-width="2" d="M8.5 7h25v14h-25V7Z"/></mask><g mask="url(#d)"><path stroke="#C1C9F1" stroke-opacity=".118" stroke-width="2.9" d="m21.563 7 .549-1.342-.562-.23-.559.24L21.563 7Zm0 0 .55-1.342.003.002.007.003.02.008a6.18 6.18 0 0 1 .29.128 17.234 17.234 0 0 1 3.094 1.836c1.623 1.218 3.673 3.284 3.673 6.118 0 2.802-2.014 4.99-3.617 6.321a19.08 19.08 0 0 1-3.354 2.214l-.02.01-.005.003H22.2v.001L21.562 21m0-14a86.331 86.331 0 0 0-.572-1.332l-.003.001-.006.003-.02.008a6.773 6.773 0 0 0-.287.133 17.982 17.982 0 0 0-3.082 1.872c-1.608 1.22-3.667 3.288-3.667 6.068 0 2.748 2.022 4.937 3.611 6.272a19.921 19.921 0 0 0 3.277 2.22l.064.033.018.01.006.003h.003v.001l.66-1.292m0 0 .637 1.302-.65.318-.645-.328.657-1.292Z"/><path fill="#CCE0E5" d="m21.45 8.037.625-1.309-.64-.305-.633.317.648 1.297Zm0 0c.625-1.309.626-1.309.626-1.308h.001l.002.001.006.003.017.008a6.517 6.517 0 0 1 .225.116 12.816 12.816 0 0 1 2.328 1.611c1.237 1.083 2.745 2.881 2.745 5.3 0 2.39-1.48 4.286-2.69 5.459a14.448 14.448 0 0 1-2.516 1.935l-.016.01-.005.003h-.002l-.001.001-.72-1.258m0-11.881c-.648-1.297-.649-1.297-.65-1.297l-.002.002-.006.003-.016.008a5.633 5.633 0 0 0-.223.12 13.408 13.408 0 0 0-2.315 1.64c-1.221 1.082-2.738 2.88-2.738 5.255 0 2.345 1.488 4.242 2.685 5.415a15.154 15.154 0 0 0 2.501 1.967l.015.01.006.002.002.002.741-1.246m0 0 .72 1.259-.734.418-.726-.43.74-1.247Z"/><path stroke="#C1C9F1" stroke-opacity=".748" stroke-width="2.9" d="m21.45 8.037.625-1.309-.64-.305-.633.317.648 1.297Zm0 0c.625-1.309.626-1.309.626-1.308h.001l.002.001.006.003.017.008a6.517 6.517 0 0 1 .225.116 12.816 12.816 0 0 1 2.328 1.611c1.237 1.083 2.745 2.881 2.745 5.3 0 2.39-1.48 4.286-2.69 5.459a14.448 14.448 0 0 1-2.516 1.935l-.016.01-.005.003h-.002l-.001.001-.72-1.258m0-11.881c-.648-1.297-.649-1.297-.65-1.297l-.002.002-.006.003-.016.008a5.633 5.633 0 0 0-.223.12 13.408 13.408 0 0 0-2.315 1.64c-1.221 1.082-2.738 2.88-2.738 5.255 0 2.345 1.488 4.242 2.685 5.415a15.154 15.154 0 0 0 2.501 1.967l.015.01.006.002.002.002.741-1.246m0 0 .72 1.259-.734.418-.726-.43.74-1.247Z"/><path stroke="#C51918" stroke-width="2.9" d="m21.45 8.037.625-1.309-.64-.305-.633.317.648 1.297Zm0 0c.625-1.309.626-1.309.626-1.308h.001l.002.001.006.003.017.008a6.517 6.517 0 0 1 .225.116 12.816 12.816 0 0 1 2.328 1.611c1.237 1.083 2.745 2.881 2.745 5.3 0 2.39-1.48 4.286-2.69 5.459a14.448 14.448 0 0 1-2.516 1.935l-.016.01-.005.003h-.002l-.001.001-.72-1.258m0-11.881c-.648-1.297-.649-1.297-.65-1.297l-.002.002-.006.003-.016.008a5.633 5.633 0 0 0-.223.12 13.408 13.408 0 0 0-2.315 1.64c-1.221 1.082-2.738 2.88-2.738 5.255 0 2.345 1.488 4.242 2.685 5.415a15.154 15.154 0 0 0 2.501 1.967l.015.01.006.002.002.002.741-1.246m0 0 .72 1.259-.734.418-.726-.43.74-1.247Z"/><mask id="e" width="10" height="12" x="16" y="8" maskUnits="userSpaceOnUse" style="mask-type:alpha"><path fill="#fff" d="M22.691 17.144c-.434.42-.873.77-1.23 1.028a12.16 12.16 0 0 1-1.246-1.06c-1.053-1.032-1.815-2.21-1.815-3.344 0-1.107.733-2.174 1.762-3.086.464-.411.933-.742 1.3-.976a9.9 9.9 0 0 1 1.283.944c1.014.888 1.755 1.955 1.755 3.117 0 1.19-.77 2.37-1.809 3.377Z"/><path stroke="#fff" stroke-width="2.9" d="M22.691 17.144c-.434.42-.873.77-1.23 1.028a12.16 12.16 0 0 1-1.246-1.06c-1.053-1.032-1.815-2.21-1.815-3.344 0-1.107.733-2.174 1.762-3.086.464-.411.933-.742 1.3-.976a9.9 9.9 0 0 1 1.283.944c1.014.888 1.755 1.955 1.755 3.117 0 1.19-.77 2.37-1.809 3.377Z"/></mask><g mask="url(#e)"><path fill="#91CBCB" d="M17.55 16h8.4v1.5h-8.4z"/><path fill="#FDF9A1" fill-rule="evenodd" d="M18.302 17.198s5.956.002 6.503-.18c.548-.183-1.027 3.507-3.04 3.507-2.012 0-3.463-3.327-3.463-3.327Z" clip-rule="evenodd"/><path fill="#A68861" d="m23.918 16.755-1.07.732c-1.686-1.948-2.394-3.963-2.092-6.02l1.339.156c-.253 1.722.345 3.424 1.823 5.132Z"/><path fill="#239E46" fill-rule="evenodd" d="m21.443 11.636-1.038 1.081c-.035.037-.097.003-.084-.047l.355-1.34h-1.6c-.055 0-.069-.076-.017-.096l1.362-.531-.97-1.136c-.032-.04.007-.097.055-.08l1.535.532.354-1.267c.014-.049.083-.049.096 0l.352 1.267 1.522-.527c.05-.017.088.043.053.081l-1.047 1.13 1.441.53c.053.02.039.097-.017.097H22.37l.218 1.369a.05.05 0 0 1-.085.043l-1.06-1.106ZM20.55 15h5.4v1.05h-5.4V15Z" clip-rule="evenodd"/><path fill="#C51918" fill-rule="evenodd" d="M19.731 14.393h-.005a.226.226 0 0 1-.115.128.476.476 0 0 1-.235.051.584.584 0 0 1-.211-.037.445.445 0 0 1-.165-.108.503.503 0 0 1-.107-.178.714.714 0 0 1-.038-.245c0-.092.012-.173.037-.244a.466.466 0 0 1 .277-.287.611.611 0 0 1 .22-.038c.113 0 .207.022.283.066a.464.464 0 0 1 .174.175l-.124.066a.322.322 0 0 0-.129-.138.395.395 0 0 0-.204-.05.421.421 0 0 0-.151.025.324.324 0 0 0-.194.187.389.389 0 0 0-.027.148v.178c0 .054.009.104.027.149a.322.322 0 0 0 .197.187.495.495 0 0 0 .285.011.323.323 0 0 0 .103-.045.22.22 0 0 0 .07-.075.213.213 0 0 0 .025-.106v-.109h-.277v-.116h.425v.565h-.14v-.16Zm.94-.939v.68c0 .105.022.185.066.239.045.054.123.081.234.081.112 0 .19-.027.234-.081.045-.054.067-.134.067-.239v-.68h.151v.649c0 .08-.008.149-.024.208a.346.346 0 0 1-.079.146.325.325 0 0 1-.14.087.697.697 0 0 1-.214.028.68.68 0 0 1-.212-.028.312.312 0 0 1-.137-.087.341.341 0 0 1-.075-.146.848.848 0 0 1-.023-.208v-.649h.152Zm2.201 1.1-.126-.325h-.508l-.125.324h-.154l.44-1.099h.192l.44 1.1h-.159Zm-.376-.977h-.01l-.212.535h.434l-.212-.535Zm2.082.05h-.008l-.107.184-.3.48-.3-.48-.107-.184h-.01v.926H23.6v-1.099h.202l.36.592h.009l.362-.592h.194v1.1h-.148v-.927Z" clip-rule="evenodd"/></g></g></g></g></g><defs><clipPath id="b"><rect width="36" height="24" x="3" y="2" fill="#fff" rx="2"/></clipPath><filter id="a" width="42" height="30" x="0" y="0" color-interpolation-filters="sRGB" filterUnits="userSpaceOnUse"><feFlood flood-opacity="0" result="BackgroundImageFix"/><feColorMatrix in="SourceAlpha" result="hardAlpha" values="0 0 0 0 0 0 0 0 0 0 0 0 0 0 0 0 0 0 127 0"/><feOffset dy="1"/><feGaussianBlur stdDeviation="1"/><feColorMatrix values="0 0 0 0 0.0627451 0 0 0 0 0.0941176 0 0 0 0 0.156863 0 0 0 0.06 0"/><feBlend in2="BackgroundImageFix" result="effect1_dropShadow_91_27802"/><feColorMatrix in="SourceAlpha" result="hardAlpha" values="0 0 0 0 0 0 0 0 0 0 0 0 0 0 0 0 0 0 127 0"/><feOffset dy="1"/><feGaussianBlur stdDeviation="1.5"/><feColorMatrix values="0 0 0 0 0.0627451 0 0 0 0 0.0941176 0 0 0 0 0.156863 0 0 0 0.1 0"/><feBlend in2="effect1_dropShadow_91_27802" result="effect2_dropShadow_91_27802"/><feBlend in="SourceGraphic" in2="effect2_dropShadow_91_27802" result="shape"/></filter></defs></svg>
